X:45
T:Minuet
C:Christofaro
N:From the "Bickford Mandolin Method" book 1, 1920
L:1/8
Q:1/4=110
M:3/8
K:D
z3 | [gA][fA][gA] | [gA]g/f/g | [gA][eA][gA] | [fA]f/e/d | [fA]Af | fe/^d/e | 
ebd | dc/=c/(3^c/c/c/ | (3c/c/c/(3c/c/c/c | z3 | [aA][fA][aA] | [gA]g/f/e | [gA][eA][gA] | 
[fAD]f/e/d | dcd | fA/A/A | Aee | (3d/d/d/(3d/d/d/(3d/d/d/ | d3 | B/c/dd | d/c/BB | 
G/A/BB | A/G/FF | (3A/A/A/(3A/A/A/E | (3A/A/A/(3A/A/A/F | AEE | (3F/F/F/(3F/F/F/F | 
B/c/dd | d/c/BB | G/A/BB | A/G/FF | (3A/A/A/(3A/A/A/E | (3A/A/A/(3A/A/A/F | EEE | 
D3 | 
K:G
b/4b/4b/4b/4d/d/d/d/ | d/d/db | baa | agg | b/4b/4b/4b/4d/d/d/d/ | d/d/db | baa | 
g[g2B2D2G,2] | z3 | z3 | z3 | z3 | z3 | z3 | 
 

